X:117
T:Plymouth Assembly THO3.117
O:England;London
M:C
L:1/8
Z:vmp. Peter Dunk 2011.from a transcription by Fynn Titford-Mock 2006-9
B:Thompson's Compleat Collection of 200 Favourite Country Dances Vol. III.1765-72
Q:1/4=140
U:w=!wedge!
K:G
dBAG F2 ED|dBAG F2 ED|cdec BcdB|cAGF G2[G2G,2]:|
|:"G.Fl.""_Vio."Bddd ceee &(B,D)wDwD (CE)wEwE|\
Afff gdBG &(A,F)wFwF GDB,G,|\
Bddd ceee &(B,D)wDwD (CE)wEwE|\
Ac'af g2G2 &A,cAF G2G,2:|
|:wb(gfg) wd(gfg)|wd(BAG) wA(FED)|wb(gfg) wd(gfg)|dcBA G4:|

